;FLAVOR:Marlin
;TIME:378
;Filament used: 1.48299m
;Layer height: 1.5
;MINX:-23.9
;MINY:-23.9
;MINZ:1.5
;MAXX:23.9
;MAXY:23.9
;MAXZ:15
;Generated with Cura_SteamEngine 4.7.1
M104 S230
M105
M109 S230
M82 ;absolute extrusion mode

G92 E0
G92 E0
;LAYER_COUNT:10
;LAYER:0
M107
;MESH:CAD-cilindricni-CURA.STL
G0 F7200 X0.194 Y-23.899 Z1.5
;TYPE:WALL-OUTER
G1 F240 X0.607 Y-23.892 E0.40792
G1 X1.057 Y-23.877 E0.85256
G1 X1.35 Y-23.862 E1.1423
G1 X1.567 Y-23.849 E1.35698
G1 X1.881 Y-23.827 E1.66783
G1 X2.492 Y-23.771 E2.27376
G1 X3.104 Y-23.698 E2.88242
G1 X3.424 Y-23.654 E3.20142
G1 X3.435 Y-23.651 E3.21268
G1 X3.678 Y-23.616 E3.45513
G1 X3.946 Y-23.572 E3.72334
G1 X4.361 Y-23.499 E4.13946
G1 X4.75 Y-23.423 E4.53088
G1 X5.181 Y-23.332 E4.9659
G1 X5.491 Y-23.261 E5.27997
G1 X5.754 Y-23.198 E5.54705
G1 X6.197 Y-23.083 E5.99903
G1 X6.595 Y-22.973 E6.40682
G1 X6.98 Y-22.858 E6.80362
G1 X7.196 Y-22.791 E7.02696
G1 X7.591 Y-22.663 E7.43702
G1 X7.959 Y-22.536 E7.82147
G1 X8.373 Y-22.385 E8.25666
G1 X8.752 Y-22.24 E8.6574
G1 X9.117 Y-22.093 E9.04599
G1 X9.69 Y-21.848 E9.66142
G1 X10.114 Y-21.655 E10.12148
G1 X10.475 Y-21.483 E10.51638
G1 X10.835 Y-21.303 E10.91387
G1 X11.216 Y-21.105 E11.3379
G1 X11.573 Y-20.911 E11.73915
G1 X11.968 Y-20.688 E12.18711
G1 X12.306 Y-20.488 E12.57496
G1 X12.5 Y-20.371 E12.79869
G1 X12.826 Y-20.167 E13.17847
G1 X13.177 Y-19.939 E13.59181
G1 X13.554 Y-19.685 E14.04074
G1 X13.869 Y-19.465 E14.42017
G1 X14.375 Y-19.095 E15.03922
G1 X14.709 Y-18.837 E15.45601
G1 X15.032 Y-18.581 E15.86303
G1 X15.191 Y-18.451 E16.06585
G1 X15.506 Y-18.188 E16.4711
G1 X15.848 Y-17.89 E16.91907
G1 X16.124 Y-17.642 E17.28551
G1 X16.465 Y-17.324 E17.74597
G1 X16.739 Y-17.06 E18.12172
G1 X17.06 Y-16.739 E18.57004
G1 X17.329 Y-16.459 E18.95348
G1 X17.484 Y-16.294 E19.17705
G1 X17.756 Y-15.998 E19.57404
G1 X17.89 Y-15.848 E19.77268
G1 X18.188 Y-15.506 E20.22065
G1 X18.437 Y-15.208 E20.60415
G1 X18.568 Y-15.048 E20.80836
G1 X18.693 Y-14.892 E21.00578
G1 X18.972 Y-14.535 E21.45323
G1 X19.074 Y-14.401 E21.61954
G1 X19.343 Y-14.036 E22.06731
G1 X19.572 Y-13.716 E22.45591
G1 X19.691 Y-13.545 E22.66165
G1 X19.92 Y-13.206 E23.06566
G1 X20.167 Y-12.826 E23.51324
G1 X20.367 Y-12.506 E23.8859
G1 X20.6 Y-12.117 E24.3337
G1 X20.691 Y-11.962 E24.5112
G1 X20.895 Y-11.602 E24.91983
G1 X21.094 Y-11.237 E25.33038
G1 X21.303 Y-10.835 E25.77783
G1 X21.491 Y-10.459 E26.19298
G1 X21.657 Y-10.109 E26.57553
G1 X21.827 Y-9.735 E26.98124
G1 X21.95 Y-9.453 E27.28506
G1 X22.088 Y-9.129 E27.63285
G1 X22.234 Y-8.768 E28.01741
G1 X22.306 Y-8.582 E28.21437
G1 X22.456 Y-8.182 E28.63626
G1 X22.524 Y-7.993 E28.83462
G1 X22.667 Y-7.575 E29.2709
G1 X22.75 Y-7.318 E29.53761
G1 X22.756 Y-7.304 E29.55265
G1 X22.858 Y-6.98 E29.8881
G1 X22.969 Y-6.608 E30.27148
G1 X23.084 Y-6.191 E30.69866
G1 X23.137 Y-5.992 E30.90204
G1 X23.186 Y-5.799 E31.09868
G1 X23.332 Y-5.181 E31.72579
G1 X23.376 Y-4.98 E31.92899
G1 X23.417 Y-4.782 E32.12867
G1 X23.498 Y-4.367 E32.54624
G1 X23.534 Y-4.168 E32.74595
G1 X23.602 Y-3.763 E33.15151
G1 X23.648 Y-3.447 E33.46687
G1 X23.651 Y-3.436 E33.47813
G1 X23.697 Y-3.104 E33.80913
G1 X23.748 Y-2.689 E34.22205
G1 X23.767 Y-2.519 E34.39097
G1 X23.808 Y-2.09 E34.81657
G1 X23.825 Y-1.893 E35.01184
G1 X23.847 Y-1.579 E35.32269
G1 X23.86 Y-1.362 E35.53737
G1 X23.88 Y-.929 E35.96544
G1 X23.882 Y-.915 E35.97941
G1 X23.897 Y-.426 E36.46255
G1 X23.899 Y-.227 E36.65908
G1 X23.899 Y0.194 E37.07484
G1 X23.893 Y0.592 E37.46793
G1 X23.877 Y1.057 E37.92742
G1 X23.862 Y1.35 E38.21715
G1 X23.849 Y1.567 E38.43183
G1 X23.827 Y1.88 E38.7417
G1 X23.772 Y2.486 E39.34262
G1 X23.699 Y3.103 E39.95619
G1 X23.654 Y3.423 E40.27531
G1 X23.651 Y3.435 E40.28753
G1 X23.616 Y3.678 E40.52998
G1 X23.572 Y3.946 E40.79819
G1 X23.504 Y4.336 E41.18915
G1 X23.423 Y4.75 E41.60575
G1 X23.332 Y5.181 E42.04077
G1 X23.261 Y5.491 E42.35483
G1 X23.2 Y5.746 E42.61377
G1 X23.083 Y6.197 E43.0739
G1 X22.973 Y6.595 E43.48168
G1 X22.858 Y6.98 E43.87849
G1 X22.799 Y7.171 E44.0759
G1 X22.663 Y7.591 E44.51188
G1 X22.536 Y7.959 E44.89633
G1 X22.385 Y8.373 E45.33152
G1 X22.243 Y8.745 E45.72475
G1 X22.093 Y9.117 E46.12086
G1 X21.919 Y9.527 E46.56071
G1 X21.848 Y9.69 E46.73629
G1 X21.655 Y10.114 E47.19635
G1 X21.491 Y10.459 E47.57359
G1 X21.303 Y10.835 E47.98874
G1 X21.112 Y11.203 E48.3982
G1 X20.911 Y11.573 E48.81403
G1 X20.706 Y11.937 E49.22659
G1 X20.488 Y12.306 E49.64984
G1 X20.375 Y12.493 E49.86561
G1 X20.167 Y12.826 E50.25334
G1 X19.939 Y13.177 E50.66669
G1 X19.692 Y13.544 E51.10356
G1 X19.466 Y13.868 E51.49368
G1 X19.095 Y14.374 E52.1133
G1 X18.837 Y14.709 E52.53088
G1 X18.71 Y14.871 E52.73416
G1 X18.581 Y15.032 E52.9379
G1 X18.451 Y15.191 E53.14072
G1 X18.188 Y15.506 E53.54597
G1 X17.89 Y15.848 E53.99394
G1 X17.642 Y16.124 E54.36038
G1 X17.33 Y16.459 E54.81247
G1 X17.06 Y16.739 E55.1966
G1 X16.74 Y17.059 E55.64352
G1 X16.459 Y17.329 E56.02836
G1 X16.294 Y17.484 E56.25193
G1 X15.998 Y17.756 E56.64892
G1 X15.848 Y17.89 E56.84755
G1 X15.518 Y18.178 E57.2801
G1 X15.208 Y18.437 E57.67903
G1 X15.048 Y18.568 E57.88324
G1 X14.892 Y18.693 E58.08066
G1 X14.535 Y18.972 E58.52811
G1 X14.401 Y19.074 E58.69442
G1 X14.036 Y19.343 E59.14219
G1 X13.716 Y19.572 E59.53079
G1 X13.357 Y19.819 E59.96113
G1 X13.206 Y19.92 E60.14054
G1 X12.835 Y20.161 E60.57743
G1 X12.506 Y20.367 E60.96077
G1 X12.117 Y20.6 E61.40857
G1 X11.962 Y20.691 E61.58607
G1 X11.578 Y20.908 E62.02166
G1 X11.216 Y21.105 E62.42866
G1 X10.845 Y21.298 E62.84165
G1 X10.475 Y21.483 E63.25018
G1 X10.109 Y21.657 E63.65039
G1 X9.721 Y21.833 E64.07114
G1 X9.449 Y21.952 E64.36434
G1 X9.129 Y22.088 E64.70771
G1 X8.752 Y22.24 E65.10914
G1 X8.582 Y22.306 E65.28923
G1 X8.157 Y22.465 E65.73735
G1 X7.993 Y22.524 E65.90947
G1 X7.575 Y22.667 E66.34576
G1 X7.318 Y22.75 E66.61247
G1 X7.304 Y22.756 E66.62751
G1 X6.98 Y22.858 E66.96296
G1 X6.595 Y22.973 E67.35977
G1 X6.191 Y23.084 E67.77352
G1 X5.799 Y23.186 E68.17354
G1 X5.289 Y23.307 E68.69117
G1 X4.96 Y23.38 E69.02398
G1 X4.782 Y23.417 E69.20352
G1 X4.367 Y23.498 E69.62109
G1 X4.143 Y23.538 E69.8458
G1 X3.754 Y23.603 E70.23528
G1 X3.447 Y23.648 E70.5417
G1 X3.436 Y23.651 E70.55296
G1 X3.061 Y23.703 E70.92684
G1 X2.689 Y23.748 E71.29689
G1 X2.519 Y23.767 E71.46582
G1 X2.073 Y23.809 E71.90821
G1 X1.862 Y23.827 E72.11735
G1 X1.576 Y23.847 E72.40048
G1 X1.361 Y23.86 E72.61319
G1 X0.929 Y23.88 E73.04027
G1 X0.915 Y23.882 E73.05423
G1 X0.426 Y23.897 E73.53738
G1 X0.199 Y23.899 E73.76156
G1 X-.194 Y23.899 E74.14967
G1 X-.607 Y23.892 E74.55759
G1 X-1.057 Y23.877 E75.00223
G1 X-1.349 Y23.862 E75.29098
G1 X-1.567 Y23.849 E75.50665
G1 X-1.881 Y23.827 E75.8175
G1 X-2.492 Y23.771 E76.42342
G1 X-3.209 Y23.685 E77.13658
G1 X-3.423 Y23.654 E77.35012
G1 X-3.435 Y23.651 E77.36233
G1 X-3.678 Y23.616 E77.60479
G1 X-3.946 Y23.572 E77.87299
G1 X-4.367 Y23.498 E78.29513
G1 X-4.75 Y23.423 E78.68055
G1 X-5.181 Y23.332 E79.11556
G1 X-5.491 Y23.261 E79.42963
G1 X-5.754 Y23.198 E79.69671
G1 X-6.197 Y23.083 E80.1487
G1 X-6.595 Y22.973 E80.55648
G1 X-6.98 Y22.858 E80.95328
G1 X-7.196 Y22.791 E81.17662
G1 X-7.591 Y22.663 E81.58668
G1 X-7.959 Y22.536 E81.97113
G1 X-8.373 Y22.385 E82.40632
G1 X-8.764 Y22.236 E82.81954
G1 X-9.117 Y22.093 E83.19567
G1 X-9.697 Y21.845 E83.81861
G1 X-10.114 Y21.655 E84.27116
G1 X-10.475 Y21.483 E84.66606
G1 X-10.845 Y21.298 E85.07458
G1 X-11.216 Y21.105 E85.48758
G1 X-11.584 Y20.905 E85.9012
G1 X-11.958 Y20.694 E86.32527
G1 X-12.323 Y20.478 E86.74412
G1 X-12.5 Y20.371 E86.94837
G1 X-12.835 Y20.161 E87.33883
G1 X-13.184 Y19.934 E87.74998
G1 X-13.554 Y19.685 E88.19041
G1 X-13.87 Y19.464 E88.57122
G1 X-14.375 Y19.095 E89.18889
G1 X-14.726 Y18.824 E89.62681
G1 X-15.048 Y18.568 E90.03306
G1 X-15.208 Y18.437 E90.23727
G1 X-15.518 Y18.178 E90.6362
G1 X-15.848 Y17.89 E91.06875
G1 X-16.124 Y17.642 E91.43518
G1 X-16.465 Y17.324 E91.89565
G1 X-16.74 Y17.059 E92.2728
G1 X-17.06 Y16.739 E92.71971
G1 X-17.329 Y16.459 E93.10316
G1 X-17.484 Y16.294 E93.32673
G1 X-17.774 Y15.978 E93.75029
G1 X-17.907 Y15.829 E93.94753
G1 X-18.188 Y15.506 E94.37032
G1 X-18.451 Y15.191 E94.77558
G1 X-18.581 Y15.032 E94.9784
G1 X-18.697 Y14.887 E95.16178
G1 X-18.972 Y14.535 E95.60291
G1 X-19.078 Y14.396 E95.77554
G1 X-19.343 Y14.036 E96.21699
G1 X-19.453 Y13.884 E96.40228
G1 X-19.584 Y13.699 E96.62615
G1 X-19.819 Y13.357 E97.03594
G1 X-19.934 Y13.185 E97.24027
G1 X-20.167 Y12.826 E97.66292
G1 X-20.371 Y12.5 E98.0427
G1 X-20.6 Y12.117 E98.48339
G1 X-20.691 Y11.962 E98.66089
G1 X-20.908 Y11.578 E99.09648
G1 X-21.112 Y11.203 E99.51806
G1 X-21.303 Y10.835 E99.92751
G1 X-21.491 Y10.459 E100.34266
G1 X-21.668 Y10.086 E100.75039
G1 X-21.836 Y9.714 E101.15349
G1 X-21.952 Y9.449 E101.43916
G1 X-22.088 Y9.129 E101.78254
G1 X-22.164 Y8.944 E101.98005
G1 X-22.306 Y8.582 E102.36406
G1 X-22.465 Y8.157 E102.81219
G1 X-22.533 Y7.968 E103.01055
G1 X-22.667 Y7.575 E103.4206
G1 X-22.75 Y7.318 E103.6873
G1 X-22.756 Y7.304 E103.70235
G1 X-22.799 Y7.171 E103.84039
G1 X-22.858 Y6.98 E104.0378
G1 X-22.973 Y6.595 E104.43461
G1 X-23.09 Y6.17 E104.86993
G1 X-23.189 Y5.787 E105.2606
G1 X-23.307 Y5.289 E105.76602
G1 X-23.38 Y4.96 E106.09883
G1 X-23.422 Y4.758 E106.30258
G1 X-23.504 Y4.336 E106.72712
G1 X-23.538 Y4.144 E106.91968
G1 X-23.604 Y3.751 E107.31322
G1 X-23.648 Y3.447 E107.61657
G1 X-23.651 Y3.435 E107.62879
G1 X-23.681 Y3.225 E107.83828
G1 X-23.703 Y3.058 E108.00462
G1 X-23.748 Y2.689 E108.37173
G1 X-23.767 Y2.519 E108.54066
G1 X-23.81 Y2.067 E108.98905
G1 X-23.827 Y1.864 E109.19023
G1 X-23.848 Y1.575 E109.47638
G1 X-23.871 Y1.144 E109.90262
G1 X-23.88 Y0.929 E110.11513
G1 X-23.882 Y0.915 E110.1291
G1 X-23.897 Y0.426 E110.61224
G1 X-23.899 Y0.227 E110.80877
G1 X-23.899 Y-.194 E111.22453
G1 X-23.893 Y-.592 E111.61762
G1 X-23.877 Y-1.057 E112.07711
G1 X-23.849 Y-1.567 E112.58152
G1 X-23.827 Y-1.881 E112.89237
G1 X-23.771 Y-2.492 E113.4983
G1 X-23.698 Y-3.104 E114.10696
G1 X-23.654 Y-3.424 E114.42596
G1 X-23.651 Y-3.435 E114.43722
G1 X-23.616 Y-3.678 E114.67967
G1 X-23.572 Y-3.946 E114.94788
G1 X-23.504 Y-4.336 E115.33883
G1 X-23.423 Y-4.75 E115.75543
G1 X-23.332 Y-5.181 E116.19045
G1 X-23.261 Y-5.491 E116.50452
G1 X-23.2 Y-5.746 E116.76345
G1 X-23.083 Y-6.197 E117.22358
G1 X-22.969 Y-6.608 E117.64479
G1 X-22.858 Y-6.98 E118.02817
G1 X-22.799 Y-7.171 E118.22558
G1 X-22.663 Y-7.591 E118.66156
G1 X-22.536 Y-7.959 E119.04601
G1 X-22.385 Y-8.373 E119.4812
G1 X-22.243 Y-8.745 E119.87443
G1 X-22.093 Y-9.117 E120.27054
G1 X-21.919 Y-9.527 E120.71039
G1 X-21.848 Y-9.69 E120.88597
G1 X-21.655 Y-10.114 E121.34603
G1 X-21.491 Y-10.459 E121.72328
G1 X-21.303 Y-10.835 E122.13842
G1 X-21.112 Y-11.203 E122.54788
G1 X-20.911 Y-11.573 E122.96371
G1 X-20.688 Y-11.968 E123.41166
G1 X-20.488 Y-12.306 E123.79952
G1 X-20.371 Y-12.5 E124.02325
G1 X-20.167 Y-12.826 E124.40303
G1 X-19.939 Y-13.177 E124.81637
G1 X-19.685 Y-13.554 E125.26529
G1 X-19.454 Y-13.884 E125.6631
G1 X-19.095 Y-14.375 E126.26377
G1 X-18.71 Y-14.871 E126.88384
G1 X-18.581 Y-15.032 E127.08758
G1 X-18.451 Y-15.191 E127.29041
G1 X-18.188 Y-15.506 E127.69566
G1 X-17.89 Y-15.848 E128.14363
G1 X-17.642 Y-16.124 E128.51006
G1 X-17.324 Y-16.465 E128.97053
G1 X-17.06 Y-16.739 E129.34628
G1 X-16.739 Y-17.06 E129.79459
G1 X-16.459 Y-17.329 E130.17804
G1 X-16.294 Y-17.484 E130.40161
G1 X-15.998 Y-17.756 E130.7986
G1 X-15.848 Y-17.89 E130.99723
G1 X-15.506 Y-18.188 E131.4452
G1 X-15.208 Y-18.437 E131.82871
G1 X-15.048 Y-18.568 E132.03292
G1 X-14.892 Y-18.693 E132.23033
G1 X-14.535 Y-18.972 E132.67778
G1 X-14.401 Y-19.074 E132.84409
G1 X-14.036 Y-19.343 E133.29187
G1 X-13.716 Y-19.572 E133.68047
G1 X-13.357 Y-19.819 E134.11081
G1 X-13.206 Y-19.92 E134.29021
G1 X-12.826 Y-20.167 E134.73779
G1 X-12.506 Y-20.367 E135.11045
G1 X-12.117 Y-20.6 E135.55825
G1 X-11.962 Y-20.691 E135.73575
G1 X-11.578 Y-20.908 E136.17134
G1 X-11.216 Y-21.105 E136.57834
G1 X-10.835 Y-21.303 E137.00237
G1 X-10.475 Y-21.483 E137.39986
G1 X-10.109 Y-21.657 E137.80007
G1 X-9.714 Y-21.836 E138.22834
G1 X-9.449 Y-21.952 E138.51401
G1 X-9.129 Y-22.088 E138.85739
G1 X-8.752 Y-22.24 E139.25882
G1 X-8.582 Y-22.306 E139.43891
G1 X-8.157 Y-22.465 E139.88703
G1 X-7.993 Y-22.524 E140.05915
G1 X-7.575 Y-22.667 E140.49544
G1 X-7.318 Y-22.75 E140.76215
G1 X-7.304 Y-22.756 E140.77719
G1 X-6.98 Y-22.858 E141.11264
G1 X-6.595 Y-22.973 E141.50944
G1 X-6.191 Y-23.084 E141.9232
G1 X-5.799 Y-23.186 E142.32321
G1 X-5.289 Y-23.307 E142.84085
G1 X-4.96 Y-23.38 E143.17365
G1 X-4.782 Y-23.417 E143.3532
G1 X-4.367 Y-23.498 E143.77076
G1 X-4.144 Y-23.538 E143.9945
G1 X-3.754 Y-23.603 E144.38496
G1 X-3.447 Y-23.648 E144.69138
G1 X-3.435 Y-23.651 E144.7036
G1 X-3.225 Y-23.681 E144.91309
G1 X-3.058 Y-23.703 E145.07943
G1 X-2.689 Y-23.748 E145.44654
G1 X-2.519 Y-23.767 E145.61547
G1 X-2.073 Y-23.809 E146.05787
G1 X-1.864 Y-23.827 E146.26503
G1 X-1.576 Y-23.847 E146.55013
G1 X-1.362 Y-23.86 E146.76186
G1 X-.929 Y-23.88 E147.18993
G1 X-.915 Y-23.882 E147.20389
G1 X-.426 Y-23.897 E147.68703
G1 X-.199 Y-23.899 E147.91122
G1 X0.194 Y-23.899 E148.29933
;MESH:NONMESH
G0 F600 X0.194 Y-23.899 Z3
G0 F7200 X0.197 Y-23.899
;TIME_ELAPSED:38.728327
;LAYER:1
;TYPE:WALL-OUTER
;MESH:CAD-cilindricni-CURA.STL
G1 F240 X0.616 Y-23.893 E148.71315
G1 X1.187 Y-23.871 E149.27746
G1 X1.222 Y-23.868 E149.31216
G1 X1.453 Y-23.857 E149.54054
G1 X1.839 Y-23.829 E149.92274
G1 X2.067 Y-23.811 E150.1486
G1 X2.516 Y-23.768 E150.59404
G1 X2.657 Y-23.753 E150.73407
G1 X3.12 Y-23.696 E151.19476
G1 X3.31 Y-23.671 E151.38401
G1 X3.891 Y-23.582 E151.96448
G1 X4.097 Y-23.547 E152.17083
G1 X4.711 Y-23.432 E152.78773
G1 X5.165 Y-23.335 E153.2462
G1 X5.557 Y-23.246 E153.64317
G1 X5.981 Y-23.139 E154.07502
G1 X6.372 Y-23.035 E154.47458
G1 X6.765 Y-22.923 E154.87814
G1 X7.185 Y-22.795 E155.31175
G1 X7.534 Y-22.682 E155.67402
G1 X7.979 Y-22.529 E156.13873
G1 X8.148 Y-22.469 E156.31584
G1 X8.58 Y-22.307 E156.77147
G1 X8.938 Y-22.166 E157.15145
G1 X9.325 Y-22.006 E157.56501
G1 X9.671 Y-21.856 E157.93743
G1 X10.116 Y-21.654 E158.42005
G1 X10.475 Y-21.483 E158.81274
G1 X10.835 Y-21.303 E159.21023
G1 X11.216 Y-21.105 E159.63426
G1 X11.573 Y-20.911 E160.03551
G1 X11.968 Y-20.688 E160.48347
G1 X12.44 Y-20.408 E161.02544
G1 X12.855 Y-20.148 E161.50906
G1 X13.178 Y-19.938 E161.88953
G1 X13.526 Y-19.704 E162.30367
G1 X13.863 Y-19.469 E162.7094
G1 X14.214 Y-19.213 E163.13843
G1 X14.396 Y-19.078 E163.36222
G1 X14.709 Y-18.837 E163.75233
G1 X14.863 Y-18.716 E163.94574
G1 X15.216 Y-18.43 E164.39441
G1 X15.506 Y-18.188 E164.76742
G1 X15.83 Y-17.905 E165.19225
G1 X16.115 Y-17.649 E165.57058
G1 X16.308 Y-17.471 E165.82986
G1 X16.599 Y-17.195 E166.22594
G1 X16.762 Y-17.037 E166.45012
G1 X17.06 Y-16.739 E166.86632
G1 X17.323 Y-16.466 E167.24067
G1 X17.616 Y-16.151 E167.66552
G1 X17.89 Y-15.848 E168.06895
G1 X18.188 Y-15.506 E168.51692
G1 X18.43 Y-15.216 E168.88993
G1 X18.693 Y-14.892 E169.30204
G1 X18.972 Y-14.535 E169.74949
G1 X19.074 Y-14.401 E169.9158
G1 X19.447 Y-13.893 E170.53819
G1 X19.691 Y-13.545 E170.95792
G1 X19.92 Y-13.206 E171.36193
G1 X20.167 Y-12.826 E171.80951
G1 X20.367 Y-12.506 E172.18217
G1 X20.688 Y-11.968 E172.80086
G1 X20.895 Y-11.602 E173.21611
G1 X21.094 Y-11.237 E173.62666
G1 X21.303 Y-10.835 E174.0741
G1 X21.491 Y-10.459 E174.48925
G1 X21.657 Y-10.109 E174.8718
G1 X21.831 Y-9.726 E175.28724
G1 X21.911 Y-9.546 E175.48176
G1 X22.088 Y-9.129 E175.92913
G1 X22.153 Y-8.971 E176.09786
G1 X22.306 Y-8.582 E176.51066
G1 X22.452 Y-8.193 E176.92099
G1 X22.529 Y-7.977 E177.14745
G1 X22.669 Y-7.569 E177.57343
G1 X22.728 Y-7.386 E177.76331
G1 X22.741 Y-7.35 E177.80111
G1 X22.791 Y-7.196 E177.96101
